contents/images/social-facebook.svg

<svg height="26" viewBox="0 0 26 26" width="26" xmlns="http://www.w3.org/2000/svg"><g fill="none" fill-rule="evenodd" transform="translate(1 1)"><circle cx="12" cy="12" opacity=".8" r="12" stroke="#00b8d9" stroke-width="2"/><path d="m10.2103333 8.32416667v1.65166666h-1.2103333v2.02016667h1.2103333v6.004h2.4863334v-6.0033333h1.6685s.1563333-.9686667.2325-2.02800003h-1.8913334v-1.3815c0-.20633334.2708334-.48366667.5391667-.48366667h1.3548333v-2.1035h-1.8425c-2.6086666 0-2.5475 2.02216667-2.5475 2.32416667z" fill="#00b8d9"/></g></svg>

<?xml version="1.0" encoding="UTF-8"?>
<svg width="26px" height="26px" viewBox="0 0 26 26" version="1.1" xmlns="http://www.w3.org/2000/svg" xmlns:xlink="http://www.w3.org/1999/xlink">
    <!-- Generator: Sketch 47.1 (45422) - http://www.bohemiancoding.com/sketch -->
    <title>social-facebook</title>
    <desc>Created with Sketch.</desc>
    <defs></defs>
    <g id="Web" stroke="none" stroke-width="1" fill="none" fill-rule="evenodd">
        <g id="background-code" transform="translate(-1223.000000, -753.000000)">
            <g id="social" transform="translate(1223.000000, 713.000000)">
                <g id="Group-6" transform="translate(1.000000, 41.000000)">
                    <circle id="Oval-2" stroke="#00B8D9" stroke-width="2" opacity="0.800000012" cx="12" cy="12" r="12"></circle>
                    <path d="M10.2103333,8.32416667 L10.2103333,9.97583333 L9,9.97583333 L9,11.996 L10.2103333,11.996 L10.2103333,18 L12.6966667,18 L12.6966667,11.9966667 L14.3651667,11.9966667 C14.3651667,11.9966667 14.5215,11.028 14.5976667,9.96866667 L12.7063333,9.96866667 L12.7063333,8.58716667 C12.7063333,8.38083333 12.9771667,8.1035 13.2455,8.1035 L14.6003333,8.1035 L14.6003333,6 L12.7578333,6 C10.1491667,6 10.2103333,8.02216667 10.2103333,8.32416667 Z" id="Fill-1" fill="#00B8D9"></path>
                </g>
            </g>
        </g>
    </g>
</svg>
